dist/assets/img/ghost.svg

<svg width="200" height="235" viewBox="0 0 200 235" fill="none" xmlns="http://www.w3.org/2000/svg">
<path fill-rule="evenodd" clip-rule="evenodd" d="M147 108C135.959 108 127 99.0548 127 88.0002C127 76.9586 135.959 68 147 68C158.042 68 167 76.9586 167 88.0002C167 99.0548 158.042 108 147 108ZM33 88.0002C33 76.9586 41.9587 68 53 68C64.042 68 73 76.9586 73 88.0002C73 99.0548 64.042 108 53 108C41.9587 108 33 99.0548 33 88.0002ZM100 0C-0.028923 0 9.66136e-09 93.046 9.66136e-09 93.046V235L25.0183 201.804L49.9933 235L74.9711 201.804L99.9503 235L124.93 201.804L149.91 235L174.91 201.804L200 235V93.046C200 93.046 200.029 0 100 0Z" fill="#657D95"/>
</svg>

<svg width="200" height="235" viewBox="0 0 200 235" fill="none" xmlns="http://www.w3.org/2000/svg"><path fill-rule="evenodd" clip-rule="evenodd" d="M147 108c-11.041 0-20-8.945-20-20 0-11.041 8.959-20 20-20 11.042 0 20 8.959 20 20 0 11.055-8.958 20-20 20zM33 88c0-11.041 8.959-20 20-20 11.042 0 20 8.959 20 20 0 11.055-8.958 20-20 20-11.041 0-20-8.945-20-20zm67-88C-.029 0 0 93.046 0 93.046V235l25.018-33.196L49.993 235l24.978-33.196L99.951 235l24.979-33.196L149.91 235l25-33.196L200 235V93.046S200.029 0 100 0z" fill="#657D95"/></svg>
